icons/square/48/loggerpro.svg

<svg width="48" height="48" version="1.1" viewBox="0 0 48 48.000001" xmlns="http://www.w3.org/2000/svg">
 <defs>
  <linearGradient id="linearGradient4501" x1="-47" x2="-1" y1="2.8779e-15" y2="6.1232e-17" gradientUnits="userSpaceOnUse">
   <stop style="stop-color:#e4e4e4" offset="0"/>
   <stop style="stop-color:#eee" offset="1"/>
  </linearGradient>
 </defs>
 <g transform="translate(0 3.949e-5)">
  <path d="m1 43v0.25c0 2.216 1.784 4 4 4h38c2.216 0 4-1.784 4-4v-0.25c0 2.216-1.784 4-4 4h-38c-2.216 0-4-1.784-4-4zm0 0.5v0.5c0 2.216 1.784 4 4 4h38c2.216 0 4-1.784 4-4v-0.5c0 2.216-1.784 4-4 4h-38c-2.216 0-4-1.784-4-4z" style="opacity:.02"/>
  <path d="m1 43.25v0.25c0 2.216 1.784 4 4 4h38c2.216 0 4-1.784 4-4v-0.25c0 2.216-1.784 4-4 4h-38c-2.216 0-4-1.784-4-4z" style="opacity:.05"/>
  <path d="m1 43v0.25c0 2.216 1.784 4 4 4h38c2.216 0 4-1.784 4-4v-0.25c0 2.216-1.784 4-4 4h-38c-2.216 0-4-1.784-4-4z" style="opacity:.1"/>
 </g>
 <rect transform="rotate(-90)" x="-47" y="1" width="46" height="46" rx="4" style="fill:url(#linearGradient4501)"/>
 <path d="m8.002 1v5.5l-0.00195 0.00195v0.5h-7v1.002l7-0.00195v7h-7v1h6.998v7h-6.998v1h6.998v7h-6.998v1h6.998v7l-6.998-2e-3v1.002h7v6.998h1l-0.00195-5.5645 0.00391 0.0039v-1.4375h6.9961v6.998h1.0039v-6.9961h6.9961v6.9961h1v-6.998h7v6.998h1v-6.9961l7-0.0039v0.5l2e-3 -2e-3v6.502h1v-7h6v-1h-6l-2e-3 -6.9961h6.002v-1.0039h-6.002v-6.9961h6.002v-1.0039h-6.002v-6.9961h6.002v-1.0039h-6l2e-3 -6.9961h5.998v-1h-5.998v-6.0039h-1v5.5098l-0.0059-0.00586v0.5l-6.9961-0.00391v-6h-1.0039v6.002h-6.9961v-6.002h-1v6h-7v-6h-1v6.002h-7v-1.4395l0.0019-4.5625h-0.99995zm1 7.0039h6.998v6.9961h-6.998zm8 0h6.998v6.9961h-6.998zm8 0h6.998v6.9961h-6.998zm8 0h6.998v6.9961h-6.998zm-24 8h6.998v6.9961h-6.998zm8 0h6.998v6.9961h-6.998zm8 0h6.998v6.9961h-6.998zm8 0h6.998v6.9961h-6.998zm-24 8h6.998v6.9961h-6.998zm8 0h6.998v6.9961h-6.998zm8 0h6.998v6.9961h-6.998zm8 0h6.998v6.9961h-6.998zm-24 8h6.998v6.9961h-6.998zm8 0h6.998v6.9961h-6.998zm8 0h6.998v6.9961h-6.998zm8 0h6.998v6.9961h-6.998z" style="fill:#a0dad0"/>
 <g transform="translate(0 3.949e-5)">
  <g transform="translate(0 -1004.4)">
   <path d="m1 1043.4v4c0 2.216 1.784 4 4 4h38c2.216 0 4-1.784 4-4v-4c0 2.216-1.784 4-4 4h-38c-2.216 0-4-1.784-4-4z" style="opacity:.1"/>
  </g>
 </g>
 <path d="m14.453 37 0.045-0.703c0.348-5.624 0.919-9.48 1.629-11.959s1.555-3.468 2.193-3.703c0.319-0.118 0.648-0.109 1.084 0.047 0.436 0.155 0.954 0.472 1.504 0.912 1.099 0.881 2.321 2.241 3.555 3.623 1.233 1.382 2.477 2.784 3.734 3.787 0.629 0.501 1.264 0.909 1.938 1.145 0.674 0.235 1.414 0.284 2.105 0.02 1.383-0.528 2.336-2.057 3.094-4.74s1.322-6.723 1.666-12.428h-1.498c-0.341 5.647-0.906 9.522-1.611 12.02-0.705 2.497-1.549 3.505-2.186 3.748-0.318 0.121-0.643 0.114-1.076-0.037s-0.948-0.461-1.496-0.898c-1.096-0.874-2.318-2.232-3.551-3.613-1.233-1.382-2.478-2.789-3.736-3.797-0.629-0.504-1.264-0.912-1.938-1.152s-1.413-0.297-2.107-0.041c-1.388 0.512-2.351 2.03-3.115 4.697s-1.334 7.393-1.686 13.07c1.01-0.015 1 0 1.453 0z" style="color-rendering:auto;color:#000000;fill-opacity:.098;fill-rule:evenodd;image-rendering:auto;isolation:auto;mix-blend-mode:normal;shape-rendering:auto;solid-color:#000000;white-space:normal" isolation="auto" mix-blend-mode="normal"/>
 <path d="m14.453 36 0.045-0.703c0.348-5.624 0.919-9.48 1.629-11.959s1.555-3.468 2.193-3.703c0.319-0.118 0.648-0.109 1.084 0.047 0.436 0.155 0.954 0.472 1.504 0.912 1.099 0.881 2.321 2.241 3.555 3.623 1.233 1.382 2.477 2.784 3.734 3.787 0.629 0.501 1.264 0.909 1.938 1.145 0.674 0.235 1.414 0.284 2.105 0.02 1.383-0.528 2.336-2.057 3.094-4.74s1.322-6.723 1.666-12.428h-1.498c-0.341 5.647-0.906 9.522-1.611 12.02-0.705 2.497-1.549 3.505-2.186 3.748-0.318 0.121-0.643 0.114-1.076-0.037s-0.948-0.461-1.496-0.898c-1.096-0.874-2.318-2.232-3.551-3.613-1.233-1.382-2.478-2.789-3.736-3.797-0.629-0.504-1.264-0.912-1.938-1.152s-1.413-0.297-2.107-0.041c-1.388 0.512-2.351 2.03-3.115 4.697s-1.334 7.393-1.686 13.07c1.01-0.015 1 0 1.453 0z" style="color-rendering:auto;color:#000000;fill-rule:evenodd;fill:#297bc2;image-rendering:auto;isolation:auto;mix-blend-mode:normal;shape-rendering:auto;solid-color:#000000;white-space:normal" isolation="auto" mix-blend-mode="normal"/>
</svg>

<svg width="48" height="48" viewBox="0 0 48 48.000001" xmlns="http://www.w3.org/2000/svg">
  <defs>
    <linearGradient id="a" x1="-47" x2="-1" gradientUnits="userSpaceOnUse">
      <stop offset="0" stop-color="#e4e4e4"/>
      <stop offset="1" stop-color="#eee"/>
    </linearGradient>
  </defs>
  <path d="M1 43v.25c0 2.216 1.784 4 4 4h38c2.216 0 4-1.784 4-4V43c0 2.216-1.784 4-4 4H5c-2.216 0-4-1.784-4-4zm0 .5v.5c0 2.216 1.784 4 4 4h38c2.216 0 4-1.784 4-4v-.5c0 2.216-1.784 4-4 4H5c-2.216 0-4-1.784-4-4z" opacity=".02"/>
  <path d="M1 43.25v.25c0 2.216 1.784 4 4 4h38c2.216 0 4-1.784 4-4v-.25c0 2.216-1.784 4-4 4H5c-2.216 0-4-1.784-4-4z" opacity=".05"/>
  <path d="M1 43v.25c0 2.216 1.784 4 4 4h38c2.216 0 4-1.784 4-4V43c0 2.216-1.784 4-4 4H5c-2.216 0-4-1.784-4-4z" opacity=".1"/>
  <rect transform="rotate(-90)" x="-47" y="1" width="46" height="46" rx="4" fill="url(#a)"/>
  <path d="M8.002 1v5.5L8 6.502v.5H1v1.002l7-.002v7H1v1h6.998v7H1v1h6.998v7H1v1h6.998v7L1 39v1.002h7V47h1l-.002-5.565.004.004v-1.437h6.996V47h1.004v-6.996h6.996V47h1v-6.998h7V47h1v-6.996l7-.004v.5l.002-.002V47h1v-7h6v-1h-6l-.002-6.996H47V31h-6.002v-6.996H47V23h-6.002v-6.996H47V15h-6l.002-6.996H47v-1h-5.998V1h-1v5.51l-.006-.006v.5L33 7V1h-1.004v6.002H25V1h-1v6h-7V1h-1v6.002H9v-1.44L9.002 1h-1zm1 7.004H16V15H9.002zm8 0H24V15h-6.998zm8 0H32V15h-6.998zm8 0H40V15h-6.998zm-24 8H16V23H9.002zm8 0H24V23h-6.998zm8 0H32V23h-6.998zm8 0H40V23h-6.998zm-24 8H16V31H9.002zm8 0H24V31h-6.998zm8 0H32V31h-6.998zm8 0H40V31h-6.998zm-24 8H16V39H9.002zm8 0H24V39h-6.998zm8 0H32V39h-6.998zm8 0H40V39h-6.998z" fill="#a0dad0"/>
  <path d="M1 39v4c0 2.216 1.784 4 4 4h38c2.216 0 4-1.784 4-4v-4c0 2.216-1.784 4-4 4H5c-2.216 0-4-1.784-4-4z" opacity=".1"/>
  <path d="M14.453 37l.045-.703c.348-5.624.919-9.48 1.629-11.959s1.555-3.468 2.193-3.703c.319-.118.648-.109 1.084.047.436.155.954.472 1.504.912 1.099.881 2.321 2.241 3.555 3.623 1.233 1.382 2.477 2.784 3.734 3.787.629.501 1.264.909 1.938 1.145.674.235 1.414.284 2.105.02 1.383-.528 2.336-2.057 3.094-4.74S36.656 18.706 37 13.001h-1.498c-.341 5.647-.906 9.522-1.611 12.02-.705 2.497-1.549 3.505-2.186 3.748-.318.121-.643.114-1.076-.037s-.948-.461-1.496-.898c-1.096-.874-2.318-2.232-3.551-3.613-1.233-1.382-2.478-2.789-3.736-3.797-.629-.504-1.264-.912-1.938-1.152s-1.413-.297-2.107-.041c-1.388.512-2.351 2.03-3.115 4.697S13.352 31.321 13 36.998c1.01-.015 1 0 1.453 0z" style="isolation:auto;mix-blend-mode:normal" color="#000" fill-opacity=".098" fill-rule="evenodd" white-space="normal"/>
  <path d="M14.453 36l.045-.703c.348-5.624.919-9.48 1.629-11.959s1.555-3.468 2.193-3.703c.319-.118.648-.109 1.084.047.436.155.954.472 1.504.912 1.099.881 2.321 2.241 3.555 3.623 1.233 1.382 2.477 2.784 3.734 3.787.629.501 1.264.909 1.938 1.145.674.235 1.414.284 2.105.02 1.383-.528 2.336-2.057 3.094-4.74S36.656 17.706 37 12.001h-1.498c-.341 5.647-.906 9.522-1.611 12.02-.705 2.497-1.549 3.505-2.186 3.748-.318.121-.643.114-1.076-.037s-.948-.461-1.496-.898c-1.096-.874-2.318-2.232-3.551-3.613-1.233-1.382-2.478-2.789-3.736-3.797-.629-.504-1.264-.912-1.938-1.152s-1.413-.297-2.107-.041c-1.388.512-2.351 2.03-3.115 4.697S13.352 30.321 13 35.998c1.01-.015 1 0 1.453 0z" style="isolation:auto;mix-blend-mode:normal" color="#000" fill-rule="evenodd" fill="#297bc2" white-space="normal"/>
</svg>
